src/lib/packages/icons/src/assets/line/bookmark-check.svg

<svg width="24" height="24" viewBox="0 0 24 24" fill="none" xmlns="http://www.w3.org/2000/svg">
<path d="M16 2.25H8C5.582 2.25 4.25 3.582 4.25 6V21C4.25 21.268 4.39302 21.5149 4.62402 21.6479C4.74002 21.716 4.87 21.75 5 21.75C5.128 21.75 5.25707 21.717 5.37207 21.651L12 17.863L18.6279 21.65C18.8609 21.783 19.147 21.782 19.376 21.647C19.607 21.513 19.75 21.266 19.75 20.999V5.99902C19.75 3.58202 18.418 2.25 16 2.25ZM18.25 19.707L12.3721 16.349C12.1421 16.217 11.8579 16.217 11.6279 16.349L5.75 19.708V6C5.75 4.423 6.423 3.75 8 3.75H16C17.577 3.75 18.25 4.423 18.25 6V19.707ZM15.03 7.80298C15.323 8.09598 15.323 8.57101 15.03 8.86401L11.697 12.197C11.551 12.343 11.359 12.417 11.167 12.417C10.975 12.417 10.783 12.344 10.637 12.197L8.96997 10.53C8.67697 10.238 8.67697 9.76199 8.96997 9.46899C9.26297 9.17599 9.73801 9.17599 10.031 9.46899L11.168 10.605L13.9709 7.802C14.2629 7.51 14.737 7.50998 15.03 7.80298Z" fill="currentColor"/>
</svg>

<svg xmlns="http://www.w3.org/2000/svg" width="24" height="24" fill="none"><path fill="currentColor" d="M16 2.25H8C5.582 2.25 4.25 3.582 4.25 6v15a.747.747 0 0 0 .75.75.749.749 0 0 0 .372-.099L12 17.863l6.628 3.787a.75.75 0 0 0 1.122-.651v-15c0-2.417-1.332-3.749-3.75-3.749Zm2.25 17.457-5.878-3.358a.749.749 0 0 0-.744 0L5.75 19.708V6c0-1.577.673-2.25 2.25-2.25h8c1.577 0 2.25.673 2.25 2.25v13.707ZM15.03 7.803a.75.75 0 0 1 0 1.061l-3.333 3.333a.748.748 0 0 1-1.06 0L8.97 10.53a.75.75 0 1 1 1.061-1.061l1.137 1.136 2.803-2.803a.749.749 0 0 1 1.059.001Z"/></svg>
